src/pos-icons/school.svg

<svg height="24" viewBox="0 0 24 24" width="24" xmlns="http://www.w3.org/2000/svg"><path d="m12 3-11 6 11 6 9-4.91v6.91h2v-8m-18 4.18v4l7 3.82 7-3.82v-4l-7 3.82z"/></svg>

<?xml version="1.0" encoding="UTF-8"?><!DOCTYPE svg PUBLIC "-//W3C//DTD SVG 1.1//EN" "http://www.w3.org/Graphics/SVG/1.1/DTD/svg11.dtd"><svg xmlns="http://www.w3.org/2000/svg" xmlns:xlink="http://www.w3.org/1999/xlink" version="1.1" id="mdi-school" width="24" height="24" viewBox="0 0 24 24"><path d="M12,3L1,9L12,15L21,10.09V17H23V9M5,13.18V17.18L12,21L19,17.18V13.18L12,17L5,13.18Z" /></svg>
